X:1
T: Lady Belhaven's Reel
C:
R:Reel
Q: 232
K:G
M:4/4
L:1/8
|:c|BG ((3GGG) dB gd|BG ((3GGG) cA FA|BG ((3GGG) dB ga|bf gd BG Gc|
BG ((3GGG) dB gd|BG ((3GGG) cA FA|BG ((3GGG) dB ga|bf gd BG Ge|
((3efg) dg cg Bg|A=f fc A=F Ff|((3e^fg) dg cg Bg|Af gd BG Gg|
((3efg) dg cg Bg|A=f fc A=F Ff|ge =fd ec dB|Ag ^fa gG G:|
